!!!OTL: Qinjianjieyue haochuduo
!!!ARE: Asia, China,ÿGuangdong Wengyuan
!! II, 357
!!!SCT: C1888
!!!YEM: Copyright 1995, estate of Helmut Schaffrath.
**kern
*ICvox
*Ivox
*M2/4
*k[f#c#g#]
*A:
{8aa
16aa
16bb
4ccc#
=1
8ccc#
16bb
16ccc#
8aa
8aa
=2
8aa
16aa
16bb
16ccc#
16eee
8ccc#
=3
8aa
4.bb}
=4
{8eee
16ccc#
16bb
4aa
=5
16aa
16bb
8ccc#
8bb
8aa
=6
8ff#
8aa
16ff#
16aa
16ee
16ff#
=7
4aa
4ff#}
=8
{8aa
16aa
16bb
4ccc#
=9
8ccc#
16bb
16ccc#
8aa
8aa
=10
8aa
16aa
16bb
16ccc#
16eee
8ccc#
=11
8aa
4.bb}
=12
{8eee
16ccc#
16bb
4aa
=13
16aa
16bb
8ccc#
8bb
8aa
=14
8ff#
8aa
16ff#
16aa
16ee
16ff#
=15
4.aa
8ff#}
=16
{16ee
16ee
16aa
16aa
8ff#
8ff#
=17
8ee
8aa
8ff#
8ff#
=18
8eee
16ccc#
16bb
4aa}
=19
{16aa
16bb
8ccc#
8bb
8aa
=20
8ff#
8aa
16ff#
16aa
16ee
16ff#
=21
2aa}
==
!!!AGN: Xiaodiao, Yaochuange
!!!AMT: simple duple
!!!AIN: vox
!!!EED: Helmut Schaffrath
!!!EEV: 1.0
*-
